symbolic/24x24/actions/view-certificate-import.svg

<svg xmlns="http://www.w3.org/2000/svg" width="24" height="24"><defs><style id="current-color-scheme" type="text/css"></style></defs><path style="fill:currentColor;color:#323a41" d="m13 10-3 2.5 3 2.5v-1h3v-3h-3zM0 1v14h9V9h7V1zm9 2h6v1H9zM3.5 4S5 4 5 5.5V7h1v3H1V7h1V5.5C2 4 3.5 4 3.5 4zm0 1S3 5 3 5.5V7h1V5.5C4 5 3.5 5 3.5 5zM9 6h6v1H9z" transform="translate(4 4)"/></svg>

<svg xmlns="http://www.w3.org/2000/svg" width="24" height="24" version="1.1">
 <defs>
  <style id="current-color-scheme" type="text/css">
   .ColorScheme-Text { color:#323a41; } .ColorScheme-Highlight { color:#4285f4; } .ColorScheme-NeutralText { color:#ff9800; } .ColorScheme-PositiveText { color:#4caf50; } .ColorScheme-NegativeText { color:#f44336; }
  </style>
 </defs>
 <g transform="translate(4,4)">
  <path style="fill:currentColor" class="ColorScheme-Text" d="M 13,10 10,12.5 13,15 V 14 H 16 V 11 H 13 Z M 0,1 V 15 H 9 V 10 9 H 15 16 V 1 Z M 9,3 H 15 V 4 H 9 Z M 3.5,4 C 3.5,4 5,4 5,5.5 V 7 H 6 V 10 H 1 V 7 H 2 V 5.5 C 2,4 3.5,4 3.5,4 Z M 3.5,5 C 3.5,5 3,5 3,5.5 V 7 H 4 V 5.5 C 4,5 3.5,5 3.5,5 Z M 9,6 H 15 V 7 H 9 Z"/>
 </g>
</svg>
